packages/dnb-ui-lib/assets/icons/coins_1.svg

<svg width="16" height="16" viewBox="0 0 16 16" fill="none" xmlns="http://www.w3.org/2000/svg">
<path d="M1 2.59091V12.0976M1 2.59091C1 3.46954 3.13682 4.18182 5.77273 4.18182C8.40863 4.18182 10.5455 3.46954 10.5455 2.59091M1 2.59091C1 1.71227 3.13682 1 5.77273 1C8.40863 1 10.5455 1.71227 10.5455 2.59091M1 2.59091V5.73393M1 12.0976C1 12.9975 3.13691 13.7273 5.77273 13.7273H6.44343M1 12.0976V8.91574M10.5455 2.59091V7.34424M10.5455 2.59091V5.73393M1 8.91574C1 9.75834 2.87316 10.4517 5.27517 10.5367H5.45455M1 8.91574V5.73393M1 5.73393C1 6.63389 3.13691 7.36364 5.77273 7.36364C8.40855 7.36364 10.5455 6.63389 10.5455 5.73393M10.5455 5.73393V7.34424M10.5455 7.34424V8.16257M5.45455 9.75C5.45455 8.87137 7.59137 8.15909 10.2273 8.15909C10.3342 8.15909 10.4403 8.16026 10.5455 8.16257M5.45455 9.75C5.45455 10.65 7.59145 11.3797 10.2273 11.3797C12.8631 11.3797 15 10.65 15 9.75M5.45455 9.75V10.5367M15 9.75V12.7339C15 13.6339 12.8631 14.3636 10.2273 14.3636C8.68642 14.3636 7.31607 14.1143 6.44343 13.7273M15 9.75C15 8.90701 13.033 8.21715 10.5455 8.16257M5.45455 10.5367V12.7339C5.45455 13.1078 5.82332 13.4523 6.44343 13.7273" stroke="black" stroke-width="1.5" stroke-linecap="round" stroke-linejoin="round"/>
</svg>

<svg width="16" height="16" viewBox="0 0 16 16" fill="none" xmlns="http://www.w3.org/2000/svg"><path d="M1 2.59v9.508M1 2.59c0 .879 2.137 1.59 4.773 1.59 2.636 0 4.773-.711 4.773-1.59M1 2.59C1 1.712 3.137 1 5.773 1c2.636 0 4.773.712 4.773 1.59M1 2.59v3.144m0 6.364c0 .9 2.137 1.63 4.773 1.63h.67M1 12.097V8.916m9.546-6.325v4.753m0-4.753v3.143M1 8.916c0 .842 1.873 1.536 4.275 1.62h.18M1 8.917V5.734m0 0c0 .9 2.137 1.63 4.773 1.63 2.636 0 4.773-.73 4.773-1.63m0 0v1.61m0 0v.819M5.455 9.75c0-.879 2.136-1.59 4.772-1.59.107 0 .213 0 .319.003M5.455 9.75c0 .9 2.136 1.63 4.772 1.63S15 10.65 15 9.75m-9.545 0v.787M15 9.75v2.984c0 .9-2.137 1.63-4.773 1.63-1.54 0-2.91-.25-3.784-.637M15 9.75c0-.843-1.967-1.533-4.454-1.587m-5.091 2.374v2.197c0 .374.368.718.988.993" stroke="#000" stroke-width="1.5" stroke-linecap="round" stroke-linejoin="round"/></svg>
